X:1
T:Feng Yang Hua Gu (Flower Drum Song)
C:Trad Chinese, Ming Dynasty origin (pre-1650)
S:Public domain — traditional folk melody, Ming Dynasty origin
M:2/4
L:1/8
Q:1/4=108
K:G
H:G pentatonic. Lively and rhythmic. Range G4-D5.
G2 AB | d4 | d2 BA | G4 |
G2 AB | d2 ed | BA GA | G4 |
d4 | e2 dB | A2 GA | G4 |
G2 AB | d2 ed | B2 AG | G4 |]
